X:62
T:Maudabawn Chapel
R:reel
C:Ed Reavy (1898-1988)
Z:id:hn-reel-62
M:C|
K:Edor
G2FG EGDB,|G,A,B,D EB,DB,|G,A,B,D GABd|gabg ea~a2|
gbag eage|dged BABd|egfa gedB|A=cBA GEED:|
|:E2BE dEBE|Ed^cB ADFD|E2BE dEBE|~A2FD DEFD|
EBBA B^cdA|BA^GA B^cde|~f3a gfe^c|dBAF GEED:|
